!!!SOCIAL_FUNCTION:	dream songs
!!!PDT:	1913
!!!OTL: No_134_Dream_Song.krn
!!!REG: Great_Lakes
!!!LANG: Non-Tone
!!!LING_GROUP: Algonquin
**kern	**kern
*staff2	*staff1
*clefF4	*clefG2
*k[b-e-a-d-g-c-]	*k[b-e-a-d-g-c-]
*M2/4	*M2/4
4r	8.b-/L
.	16a-/Jk
=1	=1
12GG-^/	8g-/L
12r	.
.	8g-/J
12GG-/	.
12GG-^/	4g-/
12r	.
12GG-/	.
=2	=2
2r	8e-/L
.	8g-/J
.	4g-/
=3||	=3||
*M3/4	*M3/4
2.r	8d-/L
.	8d-/J
.	2d-/
=4!|:	=4!|:
*M2/4	*M2/4
2r	8g-/L
.	8g-/J
.	4g-/
=5	=5
2r	8d-/L
.	8d-/J
.	4d-/
*	*clefF4
=6	=6
2r	8B-\L
.	8d-\J
.	8g-\L
.	8B-\J
=7	=7
2r	8G-\L
.	8G-\J
.	8G-\L
.	8G-\J
=8||	=8||
*M3/4	*M3/4
2.r	2.G-\
=9||	=9||
*M2/4	*M2/4
2r	8d-\L
.	8d-\J
.	12d-\L
.	12g-\
.	12B-\J
=10	=10
2r	4A-\
.	8B-\L
.	8A-\J
=11	=11
2r	8G-\L
.	8G-\J
.	4G-\
=12	=12
2r	8E-\L
.	8G-\J
.	8G-\L
.	8E-\J
=13||	=13||
*M3/4	*M3/4
2.r	8.D-\L
.	16D-\Jk
.	4.D-\
.	8D-\
=14	=14
2.r	2.D-\
==:|!	==:|!
*-	*-
